X: 1
T: Chasing Chickens
T: Highland Mary
C: Trad
M: 4/4
L: 1/8
P: A(AB)4
Z: ABC  by Mackin & Michael Greene
G: Bampton
K: G
P: A
D2 | "G" G2 AG "D" FE D2 | "G" G2 AB "C" c2 Bc | "G"d2 de "D" dcBA | "G" GABA "D" D2 F2| "G" G2 AG "D" FE D2 |
"G" G2 AB "C" c2 Bc | "G" d2 de "D" dcBA | "G" G2 "(B)" F2 "G" G2 :|
P: B
| "G" GABc d2 d2 | "C" edcB "D" c2 Bc | "G" d2 de "D" dcBA |
"G" GABA "D" D2 EF | "G" G2 AG "D" FE D2 | "G" G2 AB "C" c2 Bc | "G" d2 de "D" dcBA | "G" G2 "(D)" F2 "G" G2 :|
r :32
